X: 1
T: Hare Island
M: 4/4
L: 1/8
R: reel
K: Dmaj
cAeA fAeA|c~e3cedB|G~B3d~B3|gBfB deed|
cAeA fAed|cdef g2fg|a~e3 c~e3|dBGB ~A3B:|
=c2ec gcec|e~g3 ge=ce|d~f3 a~f3|afge fedB|
=c2ec geed|cdef g2fg|a~e3 c~e3|dBGB ~A3B:|
